X: 40
T: Huode buhe ren yiyang
%%abc-version 2.0
%%abcx-abcm2ps-target-version 5.9.1 (29 Sep 2008)
%%abc-creator hum2abc beta
%%abcx-conversion-date 2013/10/02 07:52:29
%%abc-edited-by Helmut Schaffrath
%%humdrum-veritas 1878209819
%%humdrum-veritas-data 3015838058
%%continueall 1
%%barnumbers 0
L: 1/8
M: 2/4
K: D
A BE2 [I:setbarnb 1]| 
A B e a | 
d B A d | 
B4 | 
A BE2 | 
A B e a | 
d B A B | 
A4 |]  



